report_00007_2020-12-11T15:55:29.892Z/speed-index/samples/pages+cached+noexternal+nocss/raw/values.svg

<svg width="640" height="490" xmlns="http://www.w3.org/2000/svg" xmlns:xlink="http://www.w3.org/1999/xlink"><path fill="#fff" d="M0 0h640v490H0z"/><defs><path id="d" stroke-width=".222" stroke="currentColor" d="M-1-1h2v2h-2z"/><path id="b" stroke-width=".222" stroke="currentColor" d="M0-1.33l-1.33 2h2.66z"/><path id="f" stroke-width=".222" stroke="currentColor" d="M0 1.33L1.265.411.782-1.067l-1.564-.009-.483 1.487z"/><use xlink:href="#b" id="c" stroke="currentColor" transform="rotate(180)"/><use xlink:href="#d" id="e" stroke="currentColor" transform="rotate(45)"/><circle id="a" stroke-width=".222" stroke="currentColor" cx="0" cy="0" r="1"/></defs><g fill="none" color="#000" stroke="currentColor"><path stroke="#000" d="M62.2 434.7h9m543.8 0h-9"/><text transform="translate(53.9 438.6)" stroke="none" fill="#000" font-family="Arial" font-size="12" text-anchor="end"><tspan>1664</tspan></text></g><g fill="none" color="#000" stroke="currentColor"><path stroke="#000" d="M62.2 390h9m543.8 0h-9"/><text transform="translate(53.9 393.9)" stroke="none" fill="#000" font-family="Arial" font-size="12" text-anchor="end"><tspan>1665</tspan></text></g><g fill="none" color="#000" stroke="currentColor"><path stroke="#000" d="M62.2 345.4h9m543.8 0h-9"/><text transform="translate(53.9 349.3)" stroke="none" fill="#000" font-family="Arial" font-size="12" text-anchor="end"><tspan>1666</tspan></text></g><g fill="none" color="#000" stroke="currentColor"><path stroke="#000" d="M62.2 300.7h9m543.8 0h-9"/><text transform="translate(53.9 304.6)" stroke="none" fill="#000" font-family="Arial" font-size="12" text-anchor="end"><tspan>1667</tspan></text></g><g fill="none" color="#000" stroke="currentColor"><path stroke="#000" d="M62.2 256.1h9m543.8 0h-9"/><text transform="translate(53.9 260)" stroke="none" fill="#000" font-family="Arial" font-size="12" text-anchor="end"><tspan>1668</tspan></text></g><g fill="none" color="#000" stroke="currentColor"><path stroke="#000" d="M62.2 211.5h9m543.8 0h-9"/><text transform="translate(53.9 215.4)" stroke="none" fill="#000" font-family="Arial" font-size="12" text-anchor="end"><tspan>1669</tspan></text></g><g fill="none" color="#000" stroke="currentColor"><path stroke="#000" d="M62.2 166.8h9m543.8 0h-9"/><text transform="translate(53.9 170.7)" stroke="none" fill="#000" font-family="Arial" font-size="12" text-anchor="end"><tspan>1670</tspan></text></g><g fill="none" color="#000" stroke="currentColor"><path stroke="#000" d="M62.2 122.2h9m543.8 0h-9"/><text transform="translate(53.9 126.1)" stroke="none" fill="#000" font-family="Arial" font-size="12" text-anchor="end"><tspan>1671</tspan></text></g><g fill="none" color="#000" stroke="currentColor"><path stroke="#000" d="M62.2 77.5h9m543.8 0h-9"/><text transform="translate(53.9 81.4)" stroke="none" fill="#000" font-family="Arial" font-size="12" text-anchor="end"><tspan>1672</tspan></text></g><g fill="none" color="#000" stroke="currentColor"><path stroke="#000" d="M62.2 32.9h9m543.8 0h-9"/><text transform="translate(53.9 36.8)" stroke="none" fill="#000" font-family="Arial" font-size="12" text-anchor="end"><tspan>1673</tspan></text></g><g fill="none" color="#000" stroke="currentColor"><path stroke="#000" d="M62.2 436v-9m0-408.9v9"/><text transform="translate(62.2 457.9)" stroke="none" fill="#000" font-family="Arial" font-size="12" text-anchor="middle"><tspan>0</tspan></text></g><g fill="none" color="#000" stroke="currentColor"><path stroke="#000" d="M118 436v-9m0-408.9v9"/><text transform="translate(118 457.9)" stroke="none" fill="#000" font-family="Arial" font-size="12" text-anchor="middle"><tspan>10</tspan></text></g><g fill="none" color="#000" stroke="currentColor"><path stroke="#000" d="M173.9 436v-9m0-408.9v9"/><text transform="translate(173.9 457.9)" stroke="none" fill="#000" font-family="Arial" font-size="12" text-anchor="middle"><tspan>20</tspan></text></g><g fill="none" color="#000" stroke="currentColor"><path stroke="#000" d="M229.7 436v-9m0-408.9v9"/><text transform="translate(229.7 457.9)" stroke="none" fill="#000" font-family="Arial" font-size="12" text-anchor="middle"><tspan>30</tspan></text></g><g fill="none" color="#000" stroke="currentColor"><path stroke="#000" d="M285.6 436v-9m0-408.9v9"/><text transform="translate(285.6 457.9)" stroke="none" fill="#000" font-family="Arial" font-size="12" text-anchor="middle"><tspan>40</tspan></text></g><g fill="none" color="#000" stroke="currentColor"><path stroke="#000" d="M341.4 436v-9m0-408.9v9"/><text transform="translate(341.4 457.9)" stroke="none" fill="#000" font-family="Arial" font-size="12" text-anchor="middle"><tspan>50</tspan></text></g><g fill="none" color="#000" stroke="currentColor"><path stroke="#000" d="M397.2 436v-9m0-408.9v9"/><text transform="translate(397.2 457.9)" stroke="none" fill="#000" font-family="Arial" font-size="12" text-anchor="middle"><tspan>60</tspan></text></g><g fill="none" color="#000" stroke="currentColor"><path stroke="#000" d="M453.1 436v-9m0-408.9v9"/><text transform="translate(453.1 457.9)" stroke="none" fill="#000" font-family="Arial" font-size="12" text-anchor="middle"><tspan>70</tspan></text></g><g fill="none" color="#000" stroke="currentColor"><path stroke="#000" d="M508.9 436v-9m0-408.9v9"/><text transform="translate(508.9 457.9)" stroke="none" fill="#000" font-family="Arial" font-size="12" text-anchor="middle"><tspan>80</tspan></text></g><g fill="none" color="#000" stroke="currentColor"><path stroke="#000" d="M564.7 436v-9m0-408.9v9"/><text transform="translate(564.7 457.9)" stroke="none" fill="#000" font-family="Arial" font-size="12" text-anchor="middle"><tspan>90</tspan></text></g><path stroke="#000" d="M62.2 18.1V436H615V18.1H62.2z" fill="none" color="#000"/><text transform="translate(179.8 475.9)" stroke="none" fill="#000" font-family="Arial" font-size="12" text-anchor="end" color="#000"><tspan>raw</tspan></text><path stroke="#9400D3" d="M188.1 472h42.2M62.2 250.3l5.6 37.8 5.6-43.6 5.6 98 5.5-180.1 5.6 36.9 5.6 94.2 5.6 99.5 5.6-140.6 5.6 12.6 5.5-55.6 5.6 25.2 5.6-41.4 5.6 63.3 5.6-33.6 5.6 21.8 5.5 6.4 5.6 49.7 5.6-58 5.6-169.1 5.6 93.1 5.6 138.1 5.5-135.1 5.6 26.4 5.6 135.4 5.6 27.8 5.6-167.2L213 26.1l5.5 252.6 5.6-81.1 5.6-48.7 5.6 66.5 5.6 50.4 5.6-23.1 5.6-32.7 5.5-163.9 5.6 198.4 5.6 6.9 5.6-38.3 5.6 176.6 5.6-16.4 5.5-112.6 5.6 167.3 5.6-180.4 5.6 33.1 5.6 72.8 5.6-23.8 5.5-13.3 5.6-253.8 5.6 264.6 5.6-13 5.6-55.7 5.6-10.6 5.5-20.3 5.6-72.6 5.6 23.8 5.6 223.6 5.6-164.8 5.6 67.2 5.5 2.6 5.6 51.4 5.6-54.9 5.6 24.1 5.6-109.9 5.6 10.1 5.5 29.7 5.6-117.2 5.6 82.6 5.6-26.4 5.6 13.6 5.6 204.7 5.6-218 5.5 47.1 5.6-27 5.6-21.6 5.6 59.5 5.6-101.4 5.6 9.4 5.5 68.8 5.6-19.9 5.6 124.2 5.6-151 5.6 58.6 5.6-18.7 5.5 21.8 5.6 133.5 5.6-153.1 5.6 49.2 5.6-120.1 5.6 197.2 5.5-68.9 5.6-49.2 5.6 3.5 5.6 105.2 5.6-65.8 5.6-1.4 5.5-53.3 5.6 7.9 5.6-7.2 5.6-34.3" fill="none" color="#000"/><text transform="translate(379.7 475.9)" stroke="none" fill="#000" font-family="Arial" font-size="12" text-anchor="end" color="#000"><tspan>score p10=3387</tspan></text><path stroke="#009E73" d="M388 472h42.2" fill="none" color="#000"/><text transform="translate(579.6 475.9)" stroke="none" fill="#000" font-family="Arial" font-size="12" text-anchor="end" color="#000"><tspan>score median=5800</tspan></text><path stroke="#56B4E9" d="M587.9 472h42.2" fill="none" color="#000"/><g fill="none" color="#000" stroke="currentColor"><path stroke="#000" d="M62.2 18.1V436H615V18.1H62.2z"/></g></svg>

<?xml version="1.0" encoding="utf-8"  standalone="no"?>
<svg 
 width="640" height="490"
 viewBox="0 0 640 490"
 xmlns="http://www.w3.org/2000/svg"
 xmlns:xlink="http://www.w3.org/1999/xlink"
>

<title>Gnuplot</title>
<desc>Produced by GNUPLOT 5.4 patchlevel 0 </desc>

<g id="gnuplot_canvas">

<rect x="0" y="0" width="640" height="490" fill="#ffffff"/>
<defs>

	<circle id='gpDot' r='0.5' stroke-width='0.5' stroke='currentColor'/>
	<path id='gpPt0' stroke-width='0.222' stroke='currentColor' d='M-1,0 h2 M0,-1 v2'/>
	<path id='gpPt1' stroke-width='0.222' stroke='currentColor' d='M-1,-1 L1,1 M1,-1 L-1,1'/>
	<path id='gpPt2' stroke-width='0.222' stroke='currentColor' d='M-1,0 L1,0 M0,-1 L0,1 M-1,-1 L1,1 M-1,1 L1,-1'/>
	<rect id='gpPt3' stroke-width='0.222' stroke='currentColor' x='-1' y='-1' width='2' height='2'/>
	<rect id='gpPt4' stroke-width='0.222' stroke='currentColor' fill='currentColor' x='-1' y='-1' width='2' height='2'/>
	<circle id='gpPt5' stroke-width='0.222' stroke='currentColor' cx='0' cy='0' r='1'/>
	<use xlink:href='#gpPt5' id='gpPt6' fill='currentColor' stroke='none'/>
	<path id='gpPt7' stroke-width='0.222' stroke='currentColor' d='M0,-1.33 L-1.33,0.67 L1.33,0.67 z'/>
	<use xlink:href='#gpPt7' id='gpPt8' fill='currentColor' stroke='none'/>
	<use xlink:href='#gpPt7' id='gpPt9' stroke='currentColor' transform='rotate(180)'/>
	<use xlink:href='#gpPt9' id='gpPt10' fill='currentColor' stroke='none'/>
	<use xlink:href='#gpPt3' id='gpPt11' stroke='currentColor' transform='rotate(45)'/>
	<use xlink:href='#gpPt11' id='gpPt12' fill='currentColor' stroke='none'/>
	<path id='gpPt13' stroke-width='0.222' stroke='currentColor' d='M0,1.330 L1.265,0.411 L0.782,-1.067 L-0.782,-1.076 L-1.265,0.411 z'/>
	<use xlink:href='#gpPt13' id='gpPt14' fill='currentColor' stroke='none'/>
	<filter id='textbox' filterUnits='objectBoundingBox' x='0' y='0' height='1' width='1'>
	  <feFlood flood-color='#FFFFFF' flood-opacity='1' result='bgnd'/>
	  <feComposite in='SourceGraphic' in2='bgnd' operator='atop'/>
	</filter>
	<filter id='greybox' filterUnits='objectBoundingBox' x='0' y='0' height='1' width='1'>
	  <feFlood flood-color='lightgrey' flood-opacity='1' result='grey'/>
	  <feComposite in='SourceGraphic' in2='grey' operator='atop'/>
	</filter>
</defs>
<g fill="none" color="#FFFFFF" stroke="black" stroke-width="1.00" stroke-linecap="butt" stroke-linejoin="miter">
</g>
<g fill="none" color="black" stroke="currentColor" stroke-width="1.00" stroke-linecap="butt" stroke-linejoin="miter">
	<path stroke='black'  d='M62.2,434.7 L71.2,434.7 M615.0,434.7 L606.0,434.7  '/>	<g transform="translate(53.9,438.6)" stroke="none" fill="black" font-family="Arial" font-size="12.00"  text-anchor="end">
		<text><tspan font-family="Arial" > 1664</tspan></text>
	</g>
</g>
<g fill="none" color="black" stroke="currentColor" stroke-width="1.00" stroke-linecap="butt" stroke-linejoin="miter">
	<path stroke='black'  d='M62.2,390.0 L71.2,390.0 M615.0,390.0 L606.0,390.0  '/>	<g transform="translate(53.9,393.9)" stroke="none" fill="black" font-family="Arial" font-size="12.00"  text-anchor="end">
		<text><tspan font-family="Arial" > 1665</tspan></text>
	</g>
</g>
<g fill="none" color="black" stroke="currentColor" stroke-width="1.00" stroke-linecap="butt" stroke-linejoin="miter">
	<path stroke='black'  d='M62.2,345.4 L71.2,345.4 M615.0,345.4 L606.0,345.4  '/>	<g transform="translate(53.9,349.3)" stroke="none" fill="black" font-family="Arial" font-size="12.00"  text-anchor="end">
		<text><tspan font-family="Arial" > 1666</tspan></text>
	</g>
</g>
<g fill="none" color="black" stroke="currentColor" stroke-width="1.00" stroke-linecap="butt" stroke-linejoin="miter">
	<path stroke='black'  d='M62.2,300.7 L71.2,300.7 M615.0,300.7 L606.0,300.7  '/>	<g transform="translate(53.9,304.6)" stroke="none" fill="black" font-family="Arial" font-size="12.00"  text-anchor="end">
		<text><tspan font-family="Arial" > 1667</tspan></text>
	</g>
</g>
<g fill="none" color="black" stroke="currentColor" stroke-width="1.00" stroke-linecap="butt" stroke-linejoin="miter">
	<path stroke='black'  d='M62.2,256.1 L71.2,256.1 M615.0,256.1 L606.0,256.1  '/>	<g transform="translate(53.9,260.0)" stroke="none" fill="black" font-family="Arial" font-size="12.00"  text-anchor="end">
		<text><tspan font-family="Arial" > 1668</tspan></text>
	</g>
</g>
<g fill="none" color="black" stroke="currentColor" stroke-width="1.00" stroke-linecap="butt" stroke-linejoin="miter">
	<path stroke='black'  d='M62.2,211.5 L71.2,211.5 M615.0,211.5 L606.0,211.5  '/>	<g transform="translate(53.9,215.4)" stroke="none" fill="black" font-family="Arial" font-size="12.00"  text-anchor="end">
		<text><tspan font-family="Arial" > 1669</tspan></text>
	</g>
</g>
<g fill="none" color="black" stroke="currentColor" stroke-width="1.00" stroke-linecap="butt" stroke-linejoin="miter">
	<path stroke='black'  d='M62.2,166.8 L71.2,166.8 M615.0,166.8 L606.0,166.8  '/>	<g transform="translate(53.9,170.7)" stroke="none" fill="black" font-family="Arial" font-size="12.00"  text-anchor="end">
		<text><tspan font-family="Arial" > 1670</tspan></text>
	</g>
</g>
<g fill="none" color="black" stroke="currentColor" stroke-width="1.00" stroke-linecap="butt" stroke-linejoin="miter">
	<path stroke='black'  d='M62.2,122.2 L71.2,122.2 M615.0,122.2 L606.0,122.2  '/>	<g transform="translate(53.9,126.1)" stroke="none" fill="black" font-family="Arial" font-size="12.00"  text-anchor="end">
		<text><tspan font-family="Arial" > 1671</tspan></text>
	</g>
</g>
<g fill="none" color="black" stroke="currentColor" stroke-width="1.00" stroke-linecap="butt" stroke-linejoin="miter">
	<path stroke='black'  d='M62.2,77.5 L71.2,77.5 M615.0,77.5 L606.0,77.5  '/>	<g transform="translate(53.9,81.4)" stroke="none" fill="black" font-family="Arial" font-size="12.00"  text-anchor="end">
		<text><tspan font-family="Arial" > 1672</tspan></text>
	</g>
</g>
<g fill="none" color="black" stroke="currentColor" stroke-width="1.00" stroke-linecap="butt" stroke-linejoin="miter">
	<path stroke='black'  d='M62.2,32.9 L71.2,32.9 M615.0,32.9 L606.0,32.9  '/>	<g transform="translate(53.9,36.8)" stroke="none" fill="black" font-family="Arial" font-size="12.00"  text-anchor="end">
		<text><tspan font-family="Arial" > 1673</tspan></text>
	</g>
</g>
<g fill="none" color="black" stroke="currentColor" stroke-width="1.00" stroke-linecap="butt" stroke-linejoin="miter">
	<path stroke='black'  d='M62.2,436.0 L62.2,427.0 M62.2,18.1 L62.2,27.1  '/>	<g transform="translate(62.2,457.9)" stroke="none" fill="black" font-family="Arial" font-size="12.00"  text-anchor="middle">
		<text><tspan font-family="Arial" > 0</tspan></text>
	</g>
</g>
<g fill="none" color="black" stroke="currentColor" stroke-width="1.00" stroke-linecap="butt" stroke-linejoin="miter">
	<path stroke='black'  d='M118.0,436.0 L118.0,427.0 M118.0,18.1 L118.0,27.1  '/>	<g transform="translate(118.0,457.9)" stroke="none" fill="black" font-family="Arial" font-size="12.00"  text-anchor="middle">
		<text><tspan font-family="Arial" > 10</tspan></text>
	</g>
</g>
<g fill="none" color="black" stroke="currentColor" stroke-width="1.00" stroke-linecap="butt" stroke-linejoin="miter">
	<path stroke='black'  d='M173.9,436.0 L173.9,427.0 M173.9,18.1 L173.9,27.1  '/>	<g transform="translate(173.9,457.9)" stroke="none" fill="black" font-family="Arial" font-size="12.00"  text-anchor="middle">
		<text><tspan font-family="Arial" > 20</tspan></text>
	</g>
</g>
<g fill="none" color="black" stroke="currentColor" stroke-width="1.00" stroke-linecap="butt" stroke-linejoin="miter">
	<path stroke='black'  d='M229.7,436.0 L229.7,427.0 M229.7,18.1 L229.7,27.1  '/>	<g transform="translate(229.7,457.9)" stroke="none" fill="black" font-family="Arial" font-size="12.00"  text-anchor="middle">
		<text><tspan font-family="Arial" > 30</tspan></text>
	</g>
</g>
<g fill="none" color="black" stroke="currentColor" stroke-width="1.00" stroke-linecap="butt" stroke-linejoin="miter">
	<path stroke='black'  d='M285.6,436.0 L285.6,427.0 M285.6,18.1 L285.6,27.1  '/>	<g transform="translate(285.6,457.9)" stroke="none" fill="black" font-family="Arial" font-size="12.00"  text-anchor="middle">
		<text><tspan font-family="Arial" > 40</tspan></text>
	</g>
</g>
<g fill="none" color="black" stroke="currentColor" stroke-width="1.00" stroke-linecap="butt" stroke-linejoin="miter">
	<path stroke='black'  d='M341.4,436.0 L341.4,427.0 M341.4,18.1 L341.4,27.1  '/>	<g transform="translate(341.4,457.9)" stroke="none" fill="black" font-family="Arial" font-size="12.00"  text-anchor="middle">
		<text><tspan font-family="Arial" > 50</tspan></text>
	</g>
</g>
<g fill="none" color="black" stroke="currentColor" stroke-width="1.00" stroke-linecap="butt" stroke-linejoin="miter">
	<path stroke='black'  d='M397.2,436.0 L397.2,427.0 M397.2,18.1 L397.2,27.1  '/>	<g transform="translate(397.2,457.9)" stroke="none" fill="black" font-family="Arial" font-size="12.00"  text-anchor="middle">
		<text><tspan font-family="Arial" > 60</tspan></text>
	</g>
</g>
<g fill="none" color="black" stroke="currentColor" stroke-width="1.00" stroke-linecap="butt" stroke-linejoin="miter">
	<path stroke='black'  d='M453.1,436.0 L453.1,427.0 M453.1,18.1 L453.1,27.1  '/>	<g transform="translate(453.1,457.9)" stroke="none" fill="black" font-family="Arial" font-size="12.00"  text-anchor="middle">
		<text><tspan font-family="Arial" > 70</tspan></text>
	</g>
</g>
<g fill="none" color="black" stroke="currentColor" stroke-width="1.00" stroke-linecap="butt" stroke-linejoin="miter">
	<path stroke='black'  d='M508.9,436.0 L508.9,427.0 M508.9,18.1 L508.9,27.1  '/>	<g transform="translate(508.9,457.9)" stroke="none" fill="black" font-family="Arial" font-size="12.00"  text-anchor="middle">
		<text><tspan font-family="Arial" > 80</tspan></text>
	</g>
</g>
<g fill="none" color="black" stroke="currentColor" stroke-width="1.00" stroke-linecap="butt" stroke-linejoin="miter">
	<path stroke='black'  d='M564.7,436.0 L564.7,427.0 M564.7,18.1 L564.7,27.1  '/>	<g transform="translate(564.7,457.9)" stroke="none" fill="black" font-family="Arial" font-size="12.00"  text-anchor="middle">
		<text><tspan font-family="Arial" > 90</tspan></text>
	</g>
</g>
<g fill="none" color="black" stroke="currentColor" stroke-width="1.00" stroke-linecap="butt" stroke-linejoin="miter">
</g>
<g fill="none" color="black" stroke="currentColor" stroke-width="1.00" stroke-linecap="butt" stroke-linejoin="miter">
	<path stroke='black'  d='M62.2,18.1 L62.2,436.0 L615.0,436.0 L615.0,18.1 L62.2,18.1 Z  '/></g>
<g fill="none" color="black" stroke="currentColor" stroke-width="1.00" stroke-linecap="butt" stroke-linejoin="miter">
</g>
	<g id="gnuplot_plot_1" ><title>raw</title>
<g fill="none" color="black" stroke="currentColor" stroke-width="1.00" stroke-linecap="butt" stroke-linejoin="miter">
	<g transform="translate(179.8,475.9)" stroke="none" fill="black" font-family="Arial" font-size="12.00"  text-anchor="end">
		<text><tspan font-family="Arial" >raw</tspan></text>
	</g>
</g>
<g fill="none" color="black" stroke="currentColor" stroke-width="1.00" stroke-linecap="butt" stroke-linejoin="miter">
	<path stroke='rgb(148,   0, 211)'  d='M188.1,472.0 L230.3,472.0 M62.2,250.3 L67.8,288.1 L73.4,244.5 L79.0,342.5 L84.5,162.4 L90.1,199.3
		L95.7,293.5 L101.3,393.0 L106.9,252.4 L112.5,265.0 L118.0,209.4 L123.6,234.6 L129.2,193.2 L134.8,256.5
		L140.4,222.9 L146.0,244.7 L151.5,251.1 L157.1,300.8 L162.7,242.8 L168.3,73.7 L173.9,166.8 L179.5,304.9
		L185.0,169.8 L190.6,196.2 L196.2,331.6 L201.8,359.4 L207.4,192.2 L213.0,26.1 L218.5,278.7 L224.1,197.6
		L229.7,148.9 L235.3,215.4 L240.9,265.8 L246.5,242.7 L252.1,210.0 L257.6,46.1 L263.2,244.5 L268.8,251.4
		L274.4,213.1 L280.0,389.7 L285.6,373.3 L291.1,260.7 L296.7,428.0 L302.3,247.6 L307.9,280.7 L313.5,353.5
		L319.1,329.7 L324.6,316.4 L330.2,62.6 L335.8,327.2 L341.4,314.2 L347.0,258.5 L352.6,247.9 L358.1,227.6
		L363.7,155.0 L369.3,178.8 L374.9,402.4 L380.5,237.6 L386.1,304.8 L391.6,307.4 L397.2,358.8 L402.8,303.9
		L408.4,328.0 L414.0,218.1 L419.6,228.2 L425.1,257.9 L430.7,140.7 L436.3,223.3 L441.9,196.9 L447.5,210.5
		L453.1,415.2 L458.7,197.2 L464.2,244.3 L469.8,217.3 L475.4,195.7 L481.0,255.2 L486.6,153.8 L492.2,163.2
		L497.7,232.0 L503.3,212.1 L508.9,336.3 L514.5,185.3 L520.1,243.9 L525.7,225.2 L531.2,247.0 L536.8,380.5
		L542.4,227.4 L548.0,276.6 L553.6,156.5 L559.2,353.7 L564.7,284.8 L570.3,235.6 L575.9,239.1 L581.5,344.3
		L587.1,278.5 L592.7,277.1 L598.2,223.8 L603.8,231.7 L609.4,224.5 L615.0,190.2  '/></g>
	</g>
	<g id="gnuplot_plot_2" ><title>score p10=3387</title>
<g fill="none" color="black" stroke="currentColor" stroke-width="1.00" stroke-linecap="butt" stroke-linejoin="miter">
	<g transform="translate(379.7,475.9)" stroke="none" fill="black" font-family="Arial" font-size="12.00"  text-anchor="end">
		<text><tspan font-family="Arial" >score p10=3387</tspan></text>
	</g>
</g>
<g fill="none" color="black" stroke="currentColor" stroke-width="1.00" stroke-linecap="butt" stroke-linejoin="miter">
	<path stroke='rgb(  0, 158, 115)'  d='M388.0,472.0 L430.2,472.0  '/></g>
	</g>
	<g id="gnuplot_plot_3" ><title>score median=5800</title>
<g fill="none" color="black" stroke="currentColor" stroke-width="1.00" stroke-linecap="butt" stroke-linejoin="miter">
	<g transform="translate(579.6,475.9)" stroke="none" fill="black" font-family="Arial" font-size="12.00"  text-anchor="end">
		<text><tspan font-family="Arial" >score median=5800</tspan></text>
	</g>
</g>
<g fill="none" color="black" stroke="currentColor" stroke-width="1.00" stroke-linecap="butt" stroke-linejoin="miter">
	<path stroke='rgb( 86, 180, 233)'  d='M587.9,472.0 L630.1,472.0  '/></g>
	</g>
<g fill="none" color="#FFFFFF" stroke="rgb( 86, 180, 233)" stroke-width="2.00" stroke-linecap="butt" stroke-linejoin="miter">
</g>
<g fill="none" color="black" stroke="currentColor" stroke-width="2.00" stroke-linecap="butt" stroke-linejoin="miter">
</g>
<g fill="none" color="black" stroke="black" stroke-width="1.00" stroke-linecap="butt" stroke-linejoin="miter">
</g>
<g fill="none" color="black" stroke="currentColor" stroke-width="1.00" stroke-linecap="butt" stroke-linejoin="miter">
	<path stroke='black'  d='M62.2,18.1 L62.2,436.0 L615.0,436.0 L615.0,18.1 L62.2,18.1 Z  '/></g>
<g fill="none" color="black" stroke="currentColor" stroke-width="1.00" stroke-linecap="butt" stroke-linejoin="miter">
</g>
</g>
</svg>
